X:1
T:Title
%%score { 1 | ( 2 3 ) }
L:1/8
M:3/4
K:E
V:1 treble nm="Grand Piano"
V:2 bass 
V:3 bass 
V:1
 z2 z2[Q:1/4=100] [EG]2 | [GB]3 [FA] [EG]2 | [FA]4 [FA]2 | [FA]3 [EG] [DF]2 | G4 GG | c3 c c2 | %6
 B2 B2 G2 | [EF]3 [EG] [EF]2 | [DF]4 [DF]2 | [DF]3 [EG] [FA]2 | [FA]2 [EG]2 [EG]2 | %11
 [=Gc]3 [Gc] .[Gc]2 | [GB]4 [GB]2 | [Ge]2 G2 c2 |[M:7/8] B2 G3 [GB]2 | %15
[M:3/4] [FB]3 [EB] [DB]2[Q:1/4=99][Q:1/4=97][Q:1/4=96][Q:1/4=94][Q:1/4=93][Q:1/4=91][Q:1/4=90][Q:1/4=88][Q:1/4=87][Q:1/4=85][Q:1/4=84][Q:1/4=82][Q:1/4=81][Q:1/4=79][Q:1/4=78][Q:1/4=76] | %16
[M:2/4] [EB]4 |] %17
V:2
 z2 z2 [E,B,]2 | [E,B,]3 [E,B,] [E,B,]2 | [B,,B,]4 [B,,B,]2 | [B,,B,]3 [B,,B,] [B,,B,]2 | %4
 [E,B,E]4 EE | [A,E]3 [A,E] [A,E]2 | [G,B,E]2 [G,B,E]2 [E,B,E]2 | [C,^A,]3 [C,A,] [C,A,]2 | %8
 [B,,B,]4 [B,,B,]2 | [B,,B,]3 [B,,B,] [B,,B,]2 | [E,B,]2 [E,B,]2 [E,B,]2 | %11
 [E,^A,]3 [E,A,] .[E,A,]2 | [E,B,]4 [E,B,]2 | [E,B,]2 [E,B,E]2 [E,A,E]2 | %14
[M:7/8] [E,G,E]2 [E,B,E]3 [E,B,]2 |[M:3/4] [B,,A,]3 [B,,G,] [B,,F,]2 |[M:2/4] [E,G,]4 |] %17
V:3
 x6 | x6 | x6 | x6 | z2 z2 [E,B,]2 | x6 | x6 | x6 | x6 | x6 | x6 | x6 | x6 | x6 |[M:7/8] x7 | %15
[M:3/4] x6 |[M:2/4] x4 |] %17

